**kern	**kern	**dynam
*part1	*part1	*part1
*staff2	*staff1	*
*I"Piano	*	*
*clefF4	*clefG2	*
*k[f#]	*k[f#]	*
=1	=1	=1
8.GGL 8.E	8.BL 8.e	.
16BBK 16F#	16BK 16d#X 16f#	.
8E 8G	8e 8g	.
8F#J 8A	8f#J 8a	.
=	=	=
4G 4B	4g 4b	<
!	!LO:TX:a:i:t=ritard.	!
8EL 8G 8B	8eL 8g 8b	.
8CJ 8G 8c	8eJ 8g 8cc	.
=	=	=
4.BB 4.G 4.d	4.g 4.dd	[
8C 8G 8c	8e 8g 8cc	>
=	=	=
2D 2F# 2A	2d 2f# 2a	.
=	=	=
8qGGG/	.	] p
(4.GG^	8B^L 8d 8g	.
.	8G 8B 8d	.
.	8G 8B 8d	.
16FF#LL	8GJ 8B 8d	.
16FFnJJ	.	.
=	=	=
8EEL	8GL 8c 8e	.
16DDL	8G 8c 8e	.
16CCJJ	.	.
4GG)	8G 8B 8d	.
.	8GJ 8B 8d	.
=	=	=
8qqGGG/	.	p
(4.GG^	8B^L 8d 8g	.
.	8G 8B 8d	.
.	8G 8B 8d	.
16FF#LL	8GJ 8B 8d	.
16FFnJJ	.	.
=	=	=
!	!LO:TX:a:i:t=ritard.	!
8EEL	(8GL 8c 8e	.
8DDJ	8GJ 8d 8fn	.
[4CC	[4G [4e [4g	.
=	=	=
*-	*-	*-
!!!system-decoration: {(s1,s2)}
